teeny/outline/twitch.svg

<svg width="15" height="15" viewBox="0 0 15 15" fill="none" xmlns="http://www.w3.org/2000/svg">
<path d="M0.5 0.5V0C0.223858 0 0 0.223858 0 0.5L0.5 0.5ZM14.5 0.5H15C15 0.223858 14.7761 0 14.5 0V0.5ZM14.5 8.5L14.8536 8.85355C14.9473 8.75979 15 8.63261 15 8.5H14.5ZM11.5 11.5V12C11.6326 12 11.7598 11.9473 11.8536 11.8536L11.5 11.5ZM6.5 11.5V11C6.38064 11 6.26523 11.0427 6.1746 11.1204L6.5 11.5ZM3 14.5H2.5C2.5 14.6953 2.61367 14.8727 2.79107 14.9543C2.96847 15.0358 3.17714 15.0067 3.3254 14.8796L3 14.5ZM3 11.5H3.5C3.5 11.2239 3.27614 11 3 11V11.5ZM0.5 11.5H0C0 11.7761 0.223858 12 0.5 12L0.5 11.5ZM0.5 1H14.5V0H0.5V1ZM14 0.5V8.5H15V0.5H14ZM14.1464 8.14645L11.1464 11.1464L11.8536 11.8536L14.8536 8.85355L14.1464 8.14645ZM11.5 11H6.5V12H11.5V11ZM6.1746 11.1204L2.6746 14.1204L3.3254 14.8796L6.8254 11.8796L6.1746 11.1204ZM3.5 14.5V11.5H2.5V14.5H3.5ZM3 11H0.5V12H3V11ZM1 11.5V0.5H0V11.5H1ZM10 3V8H11V3H10ZM7 3V8H8V3H7Z" fill="black"/>
</svg>

<svg viewBox="0 0 15 15" xmlns="http://www.w3.org/2000/svg"><path d="M.5.5V0C.22 0 0 .22 0 .5h.5Zm14 0h.5c0-.28-.23-.5-.5-.5v.5Zm0 8l.35.35c.09-.1.14-.23.14-.36h-.5Zm-3 3v.5c.13 0 .25-.06.35-.15l-.36-.36Zm-5 0V11c-.12 0-.24.04-.33.12l.32.37Zm-3.5 3h-.5c0 .19.11.37.29.45 .17.08.38.05.53-.08l-.33-.38Zm0-3h.5c0-.28-.23-.5-.5-.5v.5Zm-2.5 0H0c0 .27.22.5.5.5v-.5ZM.5 1h14V0H.5v1ZM14 .5v8h1v-8h-1Zm.14 7.64l-3 2.99 .7.7 3-3.01 -.71-.71Zm-2.65 2.85h-5v1h5v-1Zm-5.33.12l-3.5 3 .65.75 3.5-3 -.66-.76Zm-2.68 3.37v-3h-1v3h1Zm-.5-3.5H.48v1h2.5v-1Zm-2 .5v-11h-1v11h1Zm9-8.5v5h1v-5h-1Zm-3 0v5h1v-5h-1Z"/></svg>
